X:590
T:Hungarian Tune. or Dance.
C:John Malchair's Third Collection of Tunes
F:https://www.vwml.org/record/Malchair/3619/p59
F:www.vwml.org/topics/historic-dance-and-tune-books/Malchair
Z:Eric Conrad Jan 2020
M:2/4
L:1/16
Q:"moderato."
K:G % one sharp
P:A
|: e^def {a}g2(gf) | e^def {a}g2(gf) | {f}e2eB {B}c2cA | B2{^a}b2 B2{a}b2 |
e^def {a}g2gf | e^def {a}g2gf | {f}e2eB {B}c2cA | B2{^a}b2 B4 :|
P:B
|: cBcd {f}e2ed | cded {d}c2cB | A^GAc {c}B2B^G | A2{^g}a2A2{g}a2 |
cBcd {f}e2ed | cded {d}c2cB | A^GAc {c}B2B^G | A2{^g}a2 A4 :|


